symbols/web/quiz/materialsymbolssharp/quiz_20px.svg

<svg xmlns="http://www.w3.org/2000/svg" height="20" width="20"><path d="M11.125 9.729h1.292q0-.604.114-.875.115-.271.552-.729.605-.625.813-.99.208-.364.208-.885 0-.938-.656-1.51-.656-.573-1.698-.573-.833 0-1.469.479-.635.479-.864 1.271l1.166.479q.167-.5.469-.761.302-.26.698-.26.479 0 .771.271.291.271.291.708 0 .271-.145.511-.146.239-.563.635-.604.583-.792.958-.187.375-.187 1.271Zm.667 2.625q.375 0 .635-.26.261-.261.261-.636t-.261-.635q-.26-.261-.635-.261t-.636.261q-.26.26-.26.635t.26.636q.261.26.636.26Zm-6.625 2.479V1.667h13.166v13.166Zm1.75-1.75h9.666V3.417H6.917Zm-5.25 5.25V5.167h1.75v11.416h11.416v1.75Zm5.25-5.25V3.417v9.666Z"/></svg>

<svg xmlns="http://www.w3.org/2000/svg" height="20" width="20"><path d="M11.125 9.729H12.417Q12.417 9.125 12.531 8.854Q12.646 8.583 13.083 8.125Q13.688 7.5 13.896 7.135Q14.104 6.771 14.104 6.25Q14.104 5.312 13.448 4.74Q12.792 4.167 11.75 4.167Q10.917 4.167 10.281 4.646Q9.646 5.125 9.417 5.917L10.583 6.396Q10.75 5.896 11.052 5.635Q11.354 5.375 11.75 5.375Q12.229 5.375 12.521 5.646Q12.812 5.917 12.812 6.354Q12.812 6.625 12.667 6.865Q12.521 7.104 12.104 7.5Q11.5 8.083 11.312 8.458Q11.125 8.833 11.125 9.729ZM11.792 12.354Q12.167 12.354 12.427 12.094Q12.688 11.833 12.688 11.458Q12.688 11.083 12.427 10.823Q12.167 10.562 11.792 10.562Q11.417 10.562 11.156 10.823Q10.896 11.083 10.896 11.458Q10.896 11.833 11.156 12.094Q11.417 12.354 11.792 12.354ZM5.167 14.833V1.667H18.333V14.833ZM6.917 13.083H16.583V3.417H6.917ZM1.667 18.333V5.167H3.417V16.583H14.833V18.333ZM6.917 13.083V3.417V13.083Z"/></svg>
